X:1
T:12 ÉTUDES
T:12 ÉTUDES
T:Op. 10 No. 6
T:F. Chopin
C:F. Chopin
%%score { ( 1 4 6 ) | ( 2 3 5 ) }
L:1/8
Q:3/8=69
M:6/8
K:Gb
V:1 treble nm="Piano" snm="Pno."
V:4 treble 
V:6 treble 
V:2 bass 
V:3 bass 
V:5 bass 
V:1
"^Andante"!p! (!4!G | !3!G3-!<(! G2 F/!1!E/-!<)! |!>(! !5!B3!>)! A3) | (!5!c3- c2 B/!2!F/ | %4
 !5-4!B6) |!f! (!5!e3- ed/c/A/E/ | !5!_G2- G/F/ !3-4!E3) | (!5
3![C_F]3 !4
2![=CE]3 | %8
{/!5!E} !2-1!!4-2![B,=D]3)"_cresc." (!3
1![_CE]!2-1!!4![=C=E]!5!F) | %9
!p! (!>!!4-3
2!G3-!<(! G2 F/E/-!<)! | !5!B3 A3) | (!5!c3- c2 B/!2!F/ | !5-4!B6) | %13
 (!5!e3- ed/c/A/E/ | !>!!5!_G2- G/F/ !3-4!E3) | (!>!!5
3![C_F]3 !4!=D2- D/!5!E/ | %16
 !1!!4![G,E]3) z2 z |!p!!<(! (!5
4![EF]3 !5
4![=DF]2 !5
4![_D=G]!<)! | %18
!>(! [_A,=C=G_A]3 [A,=DFA]3)!>)! |!p!!<(! ((!4!!5![F=G]3 !5
4![=EG]2 [_E=A]!<)! | %20
 [B,=D=AB]3"_cresc." !5![B,-=E-=GB-]2) !4![^A,E^A]) ||[K:E] (B3 !4-5!=A2 !4!G | %22
 !4!!5![EG]3 [EF]2) z | (!4!!5![EA]3 !5
4![DG]2 !5
4![DF] | %24
!p! !5
4![DF]2!<(! !5
4![EG] [EG]3)!<)! | (!>!!5
4![FG]3!<(! !5
4![EG]2 [EG]!<)! | %26
 !3!!5![Gc]3 !5
4![G^B]2) z | (!5
4![FG]3 [EG]2 [EG] | !5
4![^Be]3 !5
4![Bd]3) || %29
[K:Gb]!p! (!4!!5![GA]3 [A_c]2 [A_c] | [Ac]2 [AB])"_stretto e cresc." (!5
4![B_d]2 [Bd] | %31
 [Bd]2 [B=c]) (!5
4![c_e]2 [ce] |!f!!>(! !5
3![=c_g]3!>)! !5
3![cf]3 | %33
!p! !5
4![_AB]3) [AB]2 [=GB] | !5
4![=GB]3 !5
4![_G=A]3 | [G=A]3 !>!!5
4![F_A]2 [FA] | %36
 !5
4![_FA]3 [F=G]3 | (!5
4![=E=G]3 [EG]2 [EG] |"^poco riten." !>!!5
4![^D=G]3 !5
4![D^F]3) | %39
"^smorz." (!>!!5
4![=D_G]3 !5
4![D=F]2 [DF] | !5
3![=CF]3!<(! !5
4![=DF]3)!<)! | %41
 !4-3!G3-!<(! G2 F/E/-!<)! |!>(! !5!B3!>)! A3 | (!5!c3- c2 B/!2!F/ | !5-4!B6) | %45
!f! (!5!e3- ed/c/A/E/ | !5!_G2- G/F/ !3-4!E3) | (!2!!5
3![C_F]3 !4-3!=D2- D/>E/ | %48
 !2!!5
3![C_F]3 !4-3!=D2- D/>E/ | %49
 !2!!5
3![C_F]3)"_sosten."!<(! ([^C=E^c]!4
1![E^G]!5
2![E=A])!<)! | %50
!>(! (!4!_A/_G/!>)!!<(! !2-5!_F2!<)! !4-5!E2 !4![B,=D] |"^smorz. e rallent" !5!E6-) | E6- | %53
 !fermata!E6 |] %54
V:2
 z |"_sempre legatissimo" E,6 | !5!F,6 | =D,6 | D,6 | _C,6 | B,,3 C,3 | A,,3 =A,,3 | %8
"_sempre legato" B,,6 | (!2!B,/C/=A,/C/B,/!4!G,/ B,/C/A,/C/B,/[I:staff -1]E/) | %10
!>(![I:staff +1] F,6!>)! | (A,/B,/=G,/B,/A,/!4!F,/ !2!A,/B,/G,/B,/A,/[I:staff -1]F/) | %12
[I:staff +1] _D,6 |!>(! _C,6!>)! | B,,3 C,3 | %15
[I:staff -1] !1!A,/!2!B,/!1!=G,/!2!B,/!1!A,/[I:staff +1]!2!_F,/ =F,/!2!_G,/!3!=E,/!2!G,/!1!F,/!2!B,,/- | %16
"_pesante" (B,,/C,/=A,,/C,/B,,/!3!G,,/ !4!E,,/!1!F,,/!3!=D,,/!1!F,,/!2!E,,/!4!C,,/) | %17
 [B,,,B,,]3 !1-3!B,,3 | %18
 F,/!1!=G,/!2!=E,/!1!G,/!2!F,/!3!=C,/ !4!=B,,/!1!C,/!3!^A,,/!2!C,/!1!B,,/!5!=B,,,/ | %19
 !4-5!=C,,3 !1-3!=C,3 | %20
 G,/!>(!!1!=A,/!2!^F,/!1!A,/!1!=G,/!2!=D,/!>)! ^C,/D,/^B,,/!1!D,/C,/(!5!^^F,,/ || %21
[K:E]"_legato" !4-3!G,,3) ([C,,C,]3 | [D,,D,]3 !4![G,,,G,,]2 !5![A,,,A,,] | B,,3 B,,2 B,, | %24
 !3![E,,B,,]6) | ([^B,,,^B,,]3 !4![C,,C,]3 | G,,6) | ([^B,,,^B,,]3 !4![C,,C,]3 | G,,6) || %29
[K:Gb] ([=C,,=C,]3 !4![E,,E,]3 | [=D,,=D,]3) (!4![F,,F,]3 | %31
 [=E,,=E,]3) (!5![=G,,=G,]2 !4![_G,,_G,]) | ([_E,,_E,]6 | [=D,,=D,]3 !4![_D,,_D,]3 | %34
 !5-4![=C,,=C,]6 | [_C,,_C,]6 | !4![B,,,B,,]6) | [=A,,,=A,,]6- | [A,,,A,,]6 | [B,,,_B,,]6- | %40
 [B,,,B,,]6 | E,6 | !5!F,6 | =D,6 | D,6 | _C,6 | B,,3 C,3 | A,,3!<(! !4-5!B,,3!<)! | %48
 A,,3!<(! !4-5!B,,3!<)! | A,,3 !5!=A,,!4!=B,,!3!^C, | _A,,3 !4-3!B,,3- | E,,6- | E,,6- | E,,6 |] %54
V:3
 x | (!2!B,/!1!C/!3!A,/!1!C/!2!B,/!4!G,/ B,/C/A,/C/B,/[I:staff -1]E/) | %2
[I:staff +1] (!2!C/D/B,/D/C/!4!_A,/ !2!C/D/B,/!2!D/!1!C/!2!A,/-) | %3
 (A,/!>(!!1!B,/!3!=G,/!1!B,/!2!A,/!4!F,/!>)! !2!A,/B,/G,/B,/A,/[I:staff -1]F/) | %4
[I:staff +1] !1!=G,/!2!A,/!3!^F,/!2!A,/!1!G,/!4!=E,/ !1!G,/!2!A,/!3!F,/!2!A,/!1!G,/[I:staff -1]_E/ | %5
[I:staff +1] G,/!>(!!2!A,/!3!^F,/!2!A,/!1!=G,/!4!_E,/!>)! !2!A,/!1!B,/!2!G,/B,/A,/[I:staff -1]E/ | %6
[I:staff +1] A,/B,/=G,/B,/A,/!1!F,/ !2!_G,/A,/F,/A,/G,/!3!E,/ | x6 | %8
 !1!F,/!<(!!2!G,/!3!=E,/!1!G,/!2!F,/!1!A,/!<)! G,/__B,/ =G,/_B,/ A,/_C/ | E,6 | %10
 (!2!C/D/B,/D/C/!4!_A,/ !2!C/D/B,/!2!D/!1!C/!2!A,/-) | =D,6 | %12
 !1!=G,/!2!A,/!3!^F,/!2!A,/!1!G,/!4!=E,/ !1!G,/!2!A,/!3!F,/!2!A,/!1!G,/[I:staff -1]_E/ | %13
 x3[I:staff +1] !2!A,/!1!B,/=G,/B,/A,/[I:staff -1]_E/ | x6 |[I:staff +1] A,,3 !4-5!B,,3 | %16
 !5!E,,2 x4 | x6 | F,,3 x3 | x6 | =G,,3 x3 ||[K:E] x6 | x6 | !4-5!B,,,6 | x6 | x6 | x6 | x6 | x6 || %29
[K:Gb] x6 | x6 | x6 | x6 | x6 | x6 | x6 | x6 | x6 | x6 | x6 | x6 | %41
 (!2!B,/C/A,/C/B,/!4!G,/ !2!B,/C/A,/C/B,/[I:staff -1]E/) | %42
[I:staff +1] (!2!C/D/B,/D/C/!4!_A,/ !2!C/D/B,/!2!D/!1!C/!2!A,/-) | %43
 (A,/!>(!!1!B,/!3!=G,/!1!B,/!2!A,/!4!F,/!>)! !2!A,/B,/G,/B,/A,/[I:staff -1]F/) | %44
[I:staff +1] !1!=G,/!2!A,/!3!^F,/!2!A,/!1!G,/!4!=E,/ !1!G,/!2!A,/!3!F,/!2!A,/!1!G,/[I:staff -1]_E/ | %45
[I:staff +1] G,/!>(!!2!A,/!3!^F,/!2!A,/!1!=G,/!4!_E,/!>)! !2!A,/!1!B,/!2!G,/B,/A,/[I:staff -1]E/ | %46
[I:staff +1] A,/B,/=G,/B,/A,/!1!F,/ !2!_G,/A,/F,/A,/G,/!3!E,/ | x3[I:staff -1] !2!B,3 | x3 !2!B,3 | %49
 x6 | x6 | %51
[I:staff +1] B,,/(!1!_C,/!2!B,,/!1!=D,/[I:staff -1]!1!E,/[I:staff +1]!1!F,/[I:staff -1] !2!G,/)[I:staff +1](!2!C,/B,,/!1!D,/[I:staff -1]E,/[I:staff +1]!1!F,/ | %52
[I:staff -1] !2!G,/)[I:staff +1](!2!C,/B,,/!1!=D,/[I:staff -1]E,/[I:staff +1]!1!F,/[I:staff -1] !2!G,/)[I:staff +1](C,/B,,/-!1!D,/[I:staff -1]E,/[I:staff +1]!1!F,/) | %53
 !fermata!B,,6 |] %54
V:4
 x | x6 | E4- E>!2!F- | F6 | !1-2!_F4- F>E- | E6 | !2!=D3 E3 | %7
 !1!A,/!2!B,/!1!=G,/!2!B,/!1!A,/[I:staff +1]!1!_F,/ !2!_G,/!1!_A,/!2!=F,/!1!A,/!2!G,/[I:staff -1]!1!=C/ | %8
 x5 !2!_D/!1!=D/ | E3 x3 | E4- E>!2!F- | F6 | !1-2!_F4- F>E- | E6 | !2!=D3 E3 | x3 !2!A,3 | x6 | %17
 !2!B,/!3!C/!1!=A,/!3!C/!2!B,/!1!F,/ !2!B,/"_cresc."!1!C/!2!A,/!1!C/!2!B,/[I:staff +1]!1!F,/- | %18
 x6 |[I:staff -1] !2!=D/_E/!1!^C/!3!E/D/=G,/ !2!=C/!1!=D/!2!=B,/!1!D/!2!C/[I:staff +1]!1!=G,/- | %20
 x6 ||[K:E][I:staff -1] [B,E]/F/!1!D/F/E/B,/ E/F/D/F/E/B,/ | !2!C/D/^B,/D/C/A,/ C/D/B,/D/C/F,/ | %23
 !2!C/D/^B,/D/C/F,/ !2!=B,/C/A,/C/B,/F,/ | !2!B,/C/A,/C/!2!B,/G,/ B,/C/A,/C/B,/G,/ | %25
 !2!D/E/^^C/E/D/G,/ ^C/D/^B,/D/C/G,/ | %26
 !1!D/E/!1!^^C/!2!E/D/"_m.g."[I:staff +1]!1!G,/[I:staff -1] !2!D/!2!E/!1!C/!3!E/D/G,/ | %27
 !2!D/E/^^C/E/D/G,/ ^C/D/^B,/D/C/G,/ | !2!G/A/^^F/A/G/D/ !2!G/A/F/A/G/D/ || %29
[K:Gb] !2!E/"_cresc."_F/=D/"_poco"F/E/A,/ =F/G/=E/G/F/_C/ | %30
 F/G/=E/G/F/B,/ !2!=G/A/!1!^F/!3!A/G/_D/ | =G/A/^F/A/G/=C/ !2!=A/!<(!B/^G/B/A/_E/!<)! | %32
 !2!=A/!1!B/!2!^G/!1!B/!2!A/!1!_G/ !2!A/!1!B/!2!^G/!1!B/!2!A/!1!_G/ | %33
 !2!=F/_G/=E/G/F/B,/ _F/G/_E/G/=E/B,/ | !2!=E/F/=D/F/E/B,/ !2!_E/F/D/F/E/=A,/ | %35
 !2!E/F/=D/F/E/=A,/ !2!D/E/^C/E/D/_A,/ | !2!_D/E/=C/E/D/A,/ D/E/C/E/D/=G,/ | %37
 !2!^C/^D/^B,/D/C/=G,/ !2!=C/=D/=A,/D/C/G,/ | %38
 !2!=B,/!1!=C/!2!^A,/!1!C/!2!B,/^F,/ !2!B,/!3!C/!1!A,/!3!C/!2!B,/F,/ | %39
 !2!_B,/!3!_C/!1!=A,/C/B,/=F,/ !2!B,/C/A,/C/B,/F,/ | %40
 !2!=A,/!1!B,/!2!^G,/!1!B,/!2!A,/!1!F,/ !2!B,/!3!_C/!1!B,/!3!C/B,/F,/ | x6 | E4- E>!2!F- | F6 | %44
 !1-2!_F4- F>E- | E6 | !2!=D3 E3 | %47
 !1!A,/!2!B,/!1!=G,/!2!B,/!1!A,/"_m.g."[I:staff +1]!2!_F,/ !1!=F,/!2!_G,/!3!=E,/G,/!1!F,/!4!B,,/ | %48
[I:staff -1] !1!A,/!2!B,/!1!=G,/!2!B,/!1!A,/"_m.g."[I:staff +1]!2!_F,/ !1!=F,/!2!_G,/!3!=E,/G,/!1!F,/!4!B,,/ | %49
[I:staff -1] !1!A,/!2!B,/!1!=G,/!2!B,/!1!A,/[I:staff +1]!2!_F,/ =A,/=E,/ =B,/E,/ ^C/(E,/ | %50
 _F,/)!1!F,/!2!E,/!1!F,/!2!_G,/!1!A,/ x3 | x6 | x6 |[I:staff -1] !>!!2!=G,6 |] %54
V:5
 x | x6 | x6 | x6 | x5 =G, | x5 A, | x6 | x6 | x6 | x6 | x6 | x6 | x5 =G,- | %13
 G,/!2!A,/!3!^F,/!2!A,/!1!=G,/_E,/ x2 A,- | A,/B,/=G,/B,/A,/!1!F,/ !2!_G,/A,/F,/A,/G,/E,/ | x6 | %16
 x6 | x6 | x6 | x6 | x6 ||[K:E] x6 | x6 | x6 | x6 | x6 | x6 | x6 | x6 ||[K:Gb] x6 | x6 | x6 | x6 | %33
 x6 | x6 | x6 | x6 | x6 | x6 | x6 | x6 | x6 | x6 | x6 | x5 =G, | x5 A, | x6 | x6 | x6 | x6 | x6 | %51
 x6 | x6 | x6 |] %54
V:6
 x | x6 | x6 | x6 | x6 | x6 | x6 | x5[I:staff +1] G, | x6 | x6 | x6 | x6 | x6 | x6 | x6 | x6 | x6 | %17
 x6 | x6 | x6 | x6 ||[K:E] x6 | x6 | x6 | x6 | x6 | x6 | x6 | x6 ||[K:Gb] x6 | x6 | x6 | x6 | x6 | %34
 x6 | x6 | x6 | x6 | x6 | x6 | x6 | x6 | x6 | x6 | x6 | x6 | x6 | x6 | x6 | x6 | %50
[I:staff -1] C3- C/B,/=A,/B,/-[I:staff +1]!1!=F,/[I:staff -1]!1!G,/- | !2!G,2 x4 | x6 | x6 |] %54

